bernoullicharts/2014_add_x_0_1_bits.svg

<?xml version="1.0" encoding="utf-8" standalone="no"?>
<!DOCTYPE svg PUBLIC "-//W3C//DTD SVG 1.1//EN"
  "http://www.w3.org/Graphics/SVG/1.1/DTD/svg11.dtd">
<!-- Created with matplotlib (https://matplotlib.org/) -->
<svg height="345.6pt" version="1.1" viewBox="0 0 460.8 345.6" width="460.8pt" xmlns="http://www.w3.org/2000/svg" xmlns:xlink="http://www.w3.org/1999/xlink">
 <defs>
  <style type="text/css">
*{stroke-linecap:butt;stroke-linejoin:round;}
  </style>
 </defs>
 <g id="figure_1">
  <g id="patch_1">
   <path d="M 0 345.6 
L 460.8 345.6 
L 460.8 0 
L 0 0 
z
" style="fill:#ffffff;"/>
  </g>
  <g id="axes_1">
   <g id="patch_2">
    <path d="M 57.6 307.584 
L 414.72 307.584 
L 414.72 41.472 
L 57.6 41.472 
z
" style="fill:#ffffff;"/>
   </g>
   <g id="matplotlib.axis_1">
    <g id="xtick_1">
     <g id="line2d_1">
      <defs>
       <path d="M 0 0 
L 0 3.5 
" id="mb227ef1aed" style="stroke:#000000;stroke-width:0.8;"/>
      </defs>
      <g>
       <use style="stroke:#000000;stroke-width:0.8;" x="73.790428" xlink:href="#mb227ef1aed" y="307.584"/>
      </g>
     </g>
     <g id="text_1">
      <text style="font-family:DejaVu Sans;font-size:10px;font-style:normal;font-weight:normal;text-anchor:middle;" transform="rotate(-0, 73.790428, 322.182437)" x="73.790428" y="322.182437">0.0</text>
     </g>
    </g>
    <g id="xtick_2">
     <g id="line2d_2">
      <g>
       <use style="stroke:#000000;stroke-width:0.8;" x="116.089414" xlink:href="#mb227ef1aed" y="307.584"/>
      </g>
     </g>
     <g id="text_2">
      <text style="font-family:DejaVu Sans;font-size:10px;font-style:normal;font-weight:normal;text-anchor:middle;" transform="rotate(-0, 116.089414, 322.182437)" x="116.089414" y="322.182437">0.1</text>
     </g>
    </g>
    <g id="xtick_3">
     <g id="line2d_3">
      <g>
       <use style="stroke:#000000;stroke-width:0.8;" x="158.388401" xlink:href="#mb227ef1aed" y="307.584"/>
      </g>
     </g>
     <g id="text_3">
      <text style="font-family:DejaVu Sans;font-size:10px;font-style:normal;font-weight:normal;text-anchor:middle;" transform="rotate(-0, 158.388401, 322.182437)" x="158.388401" y="322.182437">0.2</text>
     </g>
    </g>
    <g id="xtick_4">
     <g id="line2d_4">
      <g>
       <use style="stroke:#000000;stroke-width:0.8;" x="200.687387" xlink:href="#mb227ef1aed" y="307.584"/>
      </g>
     </g>
     <g id="text_4">
      <text style="font-family:DejaVu Sans;font-size:10px;font-style:normal;font-weight:normal;text-anchor:middle;" transform="rotate(-0, 200.687387, 322.182437)" x="200.687387" y="322.182437">0.3</text>
     </g>
    </g>
    <g id="xtick_5">
     <g id="line2d_5">
      <g>
       <use style="stroke:#000000;stroke-width:0.8;" x="242.986373" xlink:href="#mb227ef1aed" y="307.584"/>
      </g>
     </g>
     <g id="text_5">
      <text style="font-family:DejaVu Sans;font-size:10px;font-style:normal;font-weight:normal;text-anchor:middle;" transform="rotate(-0, 242.986373, 322.182437)" x="242.986373" y="322.182437">0.4</text>
     </g>
    </g>
    <g id="xtick_6">
     <g id="line2d_6">
      <g>
       <use style="stroke:#000000;stroke-width:0.8;" x="285.285359" xlink:href="#mb227ef1aed" y="307.584"/>
      </g>
     </g>
     <g id="text_6">
      <text style="font-family:DejaVu Sans;font-size:10px;font-style:normal;font-weight:normal;text-anchor:middle;" transform="rotate(-0, 285.285359, 322.182437)" x="285.285359" y="322.182437">0.5</text>
     </g>
    </g>
    <g id="xtick_7">
     <g id="line2d_7">
      <g>
       <use style="stroke:#000000;stroke-width:0.8;" x="327.584345" xlink:href="#mb227ef1aed" y="307.584"/>
      </g>
     </g>
     <g id="text_7">
      <text style="font-family:DejaVu Sans;font-size:10px;font-style:normal;font-weight:normal;text-anchor:middle;" transform="rotate(-0, 327.584345, 322.182437)" x="327.584345" y="322.182437">0.6</text>
     </g>
    </g>
    <g id="xtick_8">
     <g id="line2d_8">
      <g>
       <use style="stroke:#000000;stroke-width:0.8;" x="369.883331" xlink:href="#mb227ef1aed" y="307.584"/>
      </g>
     </g>
     <g id="text_8">
      <text style="font-family:DejaVu Sans;font-size:10px;font-style:normal;font-weight:normal;text-anchor:middle;" transform="rotate(-0, 369.883331, 322.182437)" x="369.883331" y="322.182437">0.7</text>
     </g>
    </g>
    <g id="xtick_9">
     <g id="line2d_9">
      <g>
       <use style="stroke:#000000;stroke-width:0.8;" x="412.182317" xlink:href="#mb227ef1aed" y="307.584"/>
      </g>
     </g>
     <g id="text_9">
      <text style="font-family:DejaVu Sans;font-size:10px;font-style:normal;font-weight:normal;text-anchor:middle;" transform="rotate(-0, 412.182317, 322.182437)" x="412.182317" y="322.182437">0.8</text>
     </g>
    </g>
    <g id="text_10">
     <text style="font-family:DejaVu Sans;font-size:10px;font-style:normal;font-weight:normal;text-anchor:middle;" transform="rotate(-0, 236.16, 335.860562)" x="236.16" y="335.860562">Probability</text>
    </g>
   </g>
   <g id="matplotlib.axis_2">
    <g id="ytick_1">
     <g id="line2d_10">
      <defs>
       <path d="M 0 0 
L -3.5 0 
" id="mfc017bfe98" style="stroke:#000000;stroke-width:0.8;"/>
      </defs>
      <g>
       <use style="stroke:#000000;stroke-width:0.8;" x="57.6" xlink:href="#mfc017bfe98" y="274.17415"/>
      </g>
     </g>
     <g id="text_11">
      <text style="font-family:DejaVu Sans;font-size:10px;font-style:normal;font-weight:normal;text-anchor:end;" transform="rotate(-0, 50.6, 277.973368)" x="50.6" y="277.973368">100</text>
     </g>
    </g>
    <g id="ytick_2">
     <g id="line2d_11">
      <g>
       <use style="stroke:#000000;stroke-width:0.8;" x="57.6" xlink:href="#mfc017bfe98" y="239.511846"/>
      </g>
     </g>
     <g id="text_12">
      <text style="font-family:DejaVu Sans;font-size:10px;font-style:normal;font-weight:normal;text-anchor:end;" transform="rotate(-0, 50.6, 243.311065)" x="50.6" y="243.311065">200</text>
     </g>
    </g>
    <g id="ytick_3">
     <g id="line2d_12">
      <g>
       <use style="stroke:#000000;stroke-width:0.8;" x="57.6" xlink:href="#mfc017bfe98" y="204.849543"/>
      </g>
     </g>
     <g id="text_13">
      <text style="font-family:DejaVu Sans;font-size:10px;font-style:normal;font-weight:normal;text-anchor:end;" transform="rotate(-0, 50.6, 208.648762)" x="50.6" y="208.648762">300</text>
     </g>
    </g>
    <g id="ytick_4">
     <g id="line2d_13">
      <g>
       <use style="stroke:#000000;stroke-width:0.8;" x="57.6" xlink:href="#mfc017bfe98" y="170.18724"/>
      </g>
     </g>
     <g id="text_14">
      <text style="font-family:DejaVu Sans;font-size:10px;font-style:normal;font-weight:normal;text-anchor:end;" transform="rotate(-0, 50.6, 173.986459)" x="50.6" y="173.986459">400</text>
     </g>
    </g>
    <g id="ytick_5">
     <g id="line2d_14">
      <g>
       <use style="stroke:#000000;stroke-width:0.8;" x="57.6" xlink:href="#mfc017bfe98" y="135.524936"/>
      </g>
     </g>
     <g id="text_15">
      <text style="font-family:DejaVu Sans;font-size:10px;font-style:normal;font-weight:normal;text-anchor:end;" transform="rotate(-0, 50.6, 139.324155)" x="50.6" y="139.324155">500</text>
     </g>
    </g>
    <g id="ytick_6">
     <g id="line2d_15">
      <g>
       <use style="stroke:#000000;stroke-width:0.8;" x="57.6" xlink:href="#mfc017bfe98" y="100.862633"/>
      </g>
     </g>
     <g id="text_16">
      <text style="font-family:DejaVu Sans;font-size:10px;font-style:normal;font-weight:normal;text-anchor:end;" transform="rotate(-0, 50.6, 104.661852)" x="50.6" y="104.661852">600</text>
     </g>
    </g>
    <g id="ytick_7">
     <g id="line2d_16">
      <g>
       <use style="stroke:#000000;stroke-width:0.8;" x="57.6" xlink:href="#mfc017bfe98" y="66.20033"/>
      </g>
     </g>
     <g id="text_17">
      <text style="font-family:DejaVu Sans;font-size:10px;font-style:normal;font-weight:normal;text-anchor:end;" transform="rotate(-0, 50.6, 69.999549)" x="50.6" y="69.999549">700</text>
     </g>
    </g>
    <g id="text_18">
     <text style="font-family:DejaVu Sans;font-size:10px;font-style:normal;font-weight:normal;text-anchor:middle;" transform="rotate(-90, 25.432812, 174.528)" x="25.432812" y="174.528">Average Bits Consumed Per Call</text>
    </g>
   </g>
   <g id="line2d_17">
    <path clip-path="url(#p6cfacbad82)" d="M 73.832727 293.135123 
L 78.104498 292.381564 
L 82.376268 293.173945 
L 86.648038 294.892502 
L 90.919809 294.670663 
L 95.191579 290.965956 
L 99.463349 293.109473 
L 103.73512 292.823162 
L 108.00689 290.778086 
L 112.27866 295.488 
L 116.550431 294.378806 
L 120.822201 293.205141 
L 125.093971 294.581234 
L 129.365742 294.139636 
L 133.637512 294.623522 
L 137.909282 294.448131 
L 142.181053 293.475507 
L 146.452823 293.191276 
L 150.724593 292.674807 
L 154.996364 294.069619 
L 159.268134 293.548298 
L 163.539904 292.087628 
L 167.811675 291.994733 
L 172.083445 294.214507 
L 176.355215 292.077923 
L 180.626986 293.387464 
L 184.898756 292.003052 
L 189.170526 291.674453 
L 193.442297 291.165611 
L 197.714067 290.702522 
L 201.985837 289.939952 
L 206.257608 288.329541 
L 210.529378 293.458176 
L 214.801148 290.280336 
L 219.072919 290.764221 
L 223.344689 289.521924 
L 227.616459 288.970794 
L 231.88823 287.934391 
L 236.16 290.172189 
L 240.43177 288.432142 
L 244.703541 290.90703 
L 248.975311 289.130934 
L 253.247081 290.570112 
L 257.518852 288.952076 
L 261.790622 287.609952 
L 266.062392 287.114974 
L 270.334163 287.155182 
L 274.605933 286.021725 
L 278.877703 284.310794 
L 283.149474 289.216896 
L 287.421244 284.36764 
L 291.693014 285.259154 
L 295.964785 287.123293 
L 300.236555 288.940291 
L 304.508325 276.365501 
M 313.051866 286.316355 
L 317.323636 279.62653 
L 321.595407 284.464694 
L 325.867177 282.904197 
L 330.138947 280.009202 
L 334.410718 280.137452 
L 338.682488 275.625807 
M 347.226029 277.459443 
L 351.497799 279.313876 
L 355.769569 271.555066 
L 360.04134 274.512454 
L 364.31311 265.473218 
M 377.128421 272.421624 
M 385.671962 266.083968 
M 394.215502 270.140844 
L 398.487273 251.593739 
" style="fill:none;stroke:#1f77b4;stroke-linecap:square;stroke-width:1.5;"/>
   </g>
   <g id="line2d_18">
    <path clip-path="url(#p6cfacbad82)" d="M 73.832727 280.408512 
L 78.104498 279.234846 
L 82.376268 280.353745 
L 86.648038 278.681636 
L 90.919809 280.773852 
L 95.191579 281.234168 
L 99.463349 279.742995 
L 103.73512 280.690663 
L 108.00689 280.311457 
L 112.27866 279.319422 
L 116.550431 281.146819 
L 120.822201 282.27681 
L 125.093971 281.105917 
L 129.365742 279.948196 
L 133.637512 278.803647 
L 137.909282 275.478146 
L 142.181053 275.36584 
L 146.452823 273.757509 
L 150.724593 275.102406 
L 154.996364 274.163751 
L 159.268134 272.10273 
L 163.539904 276.045221 
L 167.811675 274.57138 
L 172.083445 276.151981 
L 176.355215 275.932915 
L 180.626986 273.276396 
L 184.898756 269.131478 
L 189.170526 268.748806 
L 193.442297 272.834798 
L 197.714067 271.336 
L 201.985837 270.337033 
L 206.257608 271.832364 
L 210.529378 267.724882 
L 214.801148 272.255938 
L 219.072919 266.185875 
L 223.344689 263.527277 
L 227.616459 266.49645 
L 231.88823 266.815343 
L 236.16 267.236836 
L 240.43177 263.093305 
L 244.703541 260.734188 
L 248.975311 266.057625 
L 253.247081 263.409425 
L 257.518852 263.216009 
L 261.790622 268.746726 
L 266.062392 255.519591 
L 270.334163 255.048877 
L 274.605933 258.554623 
L 278.877703 257.170903 
L 283.149474 257.098806 
L 287.421244 259.489812 
L 291.693014 251.414881 
L 295.964785 251.531347 
L 300.236555 247.048818 
L 304.508325 245.186065 
L 308.780096 242.138556 
L 313.051866 244.074099 
L 317.323636 238.471977 
L 321.595407 240.984994 
L 325.867177 235.311468 
L 330.138947 236.349258 
L 334.410718 234.437285 
L 338.682488 227.72389 
L 342.954258 233.068817 
M 351.497799 220.304078 
L 355.769569 218.572349 
M 372.856651 219.510311 
" style="fill:none;stroke:#ff7f0e;stroke-linecap:square;stroke-width:1.5;"/>
   </g>
   <g id="line2d_19">
    <path clip-path="url(#p6cfacbad82)" d="M 146.452823 53.568 
L 150.724593 81.640306 
M 159.268134 115.616296 
M 167.811675 166.148388 
M 176.355215 179.962009 
M 184.898756 193.09001 
L 189.170526 208.12929 
L 193.442297 207.635006 
M 201.985837 224.4178 
L 206.257608 223.91381 
L 210.529378 225.698919 
L 214.801148 228.261849 
M 223.344689 244.432507 
L 227.616459 245.425929 
L 231.88823 252.615584 
L 236.16 249.342769 
L 240.43177 252.492186 
L 244.703541 253.634655 
L 248.975311 260.076298 
L 253.247081 252.966366 
L 257.518852 259.556363 
L 261.790622 264.266277 
L 266.062392 263.690189 
L 270.334163 268.255908 
L 274.605933 266.586571 
L 278.877703 267.717256 
" style="fill:none;stroke:#2ca02c;stroke-linecap:square;stroke-width:1.5;"/>
   </g>
   <g id="patch_3">
    <path d="M 57.6 307.584 
L 57.6 41.472 
" style="fill:none;stroke:#000000;stroke-linecap:square;stroke-linejoin:miter;stroke-width:0.8;"/>
   </g>
   <g id="patch_4">
    <path d="M 414.72 307.584 
L 414.72 41.472 
" style="fill:none;stroke:#000000;stroke-linecap:square;stroke-linejoin:miter;stroke-width:0.8;"/>
   </g>
   <g id="patch_5">
    <path d="M 57.6 307.584 
L 414.72 307.584 
" style="fill:none;stroke:#000000;stroke-linecap:square;stroke-linejoin:miter;stroke-width:0.8;"/>
   </g>
   <g id="patch_6">
    <path d="M 57.6 41.472 
L 414.72 41.472 
" style="fill:none;stroke:#000000;stroke-linecap:square;stroke-linejoin:miter;stroke-width:0.8;"/>
   </g>
   <g id="text_19">
    <text style="font-family:DejaVu Sans;font-size:12px;font-style:normal;font-weight:normal;text-anchor:middle;" transform="rotate(-0, 236.16, 35.472)" x="236.16" y="35.472">Avg. Bits Consumed</text>
   </g>
   <g id="legend_1">
    <g id="patch_7">
     <path d="M 291.171562 93.506375 
L 407.72 93.506375 
Q 409.72 93.506375 409.72 91.506375 
L 409.72 48.472 
Q 409.72 46.472 407.72 46.472 
L 291.171562 46.472 
Q 289.171562 46.472 289.171562 48.472 
L 289.171562 91.506375 
Q 289.171562 93.506375 291.171562 93.506375 
z
" style="fill:#ffffff;opacity:0.8;stroke:#cccccc;stroke-linejoin:miter;"/>
    </g>
    <g id="line2d_20">
     <path d="M 293.171562 54.570438 
L 313.171562 54.570438 
" style="fill:none;stroke:#1f77b4;stroke-linecap:square;stroke-width:1.5;"/>
    </g>
    <g id="line2d_21"/>
    <g id="text_20">
     <text style="font-family:DejaVu Sans;font-size:10px;font-style:normal;font-weight:normal;text-anchor:start;" transform="rotate(-0, 321.171562, 58.070438)" x="321.171562" y="58.070438">2014 Add. x+0.1</text>
    </g>
    <g id="line2d_22">
     <path d="M 293.171562 69.248563 
L 313.171562 69.248563 
" style="fill:none;stroke:#ff7f0e;stroke-linecap:square;stroke-width:1.5;"/>
    </g>
    <g id="line2d_23"/>
    <g id="text_21">
     <text style="font-family:DejaVu Sans;font-size:10px;font-style:normal;font-weight:normal;text-anchor:start;" transform="rotate(-0, 321.171562, 72.748563)" x="321.171562" y="72.748563">2016 Add. x+0.1</text>
    </g>
    <g id="line2d_24">
     <path d="M 293.171562 83.926688 
L 313.171562 83.926688 
" style="fill:none;stroke:#2ca02c;stroke-linecap:square;stroke-width:1.5;"/>
    </g>
    <g id="line2d_25"/>
    <g id="text_22">
     <text style="font-family:DejaVu Sans;font-size:10px;font-style:normal;font-weight:normal;text-anchor:start;" transform="rotate(-0, 321.171562, 87.426688)" x="321.171562" y="87.426688">2019 Add. x+0.1</text>
    </g>
   </g>
  </g>
 </g>
 <defs>
  <clipPath id="p6cfacbad82">
   <rect height="266.112" width="357.12" x="57.6" y="41.472"/>
  </clipPath>
 </defs>
</svg>

<svg height="460.8" viewBox="0 0 460.8 345.6" width="614.4" xmlns="http://www.w3.org/2000/svg" xmlns:xlink="http://www.w3.org/1999/xlink"><defs><style>*{stroke-linecap:butt;stroke-linejoin:round}</style></defs><g id="figure_1"><path d="M0 345.6h460.8V0H0z" fill="#fff" id="patch_1"/><g id="axes_1"><path d="M57.6 307.584h357.12V41.472H57.6z" fill="#fff" id="patch_2"/><g id="matplotlib.axis_1"><g id="xtick_1"><g id="line2d_1"><defs><path d="M0 0v3.5" id="mb227ef1aed" stroke="#000" stroke-width=".8"/></defs><use x="73.79" xlink:href="#mb227ef1aed" y="307.584" stroke="#000" stroke-width=".8"/></g><text x="73.79" y="322.182" font-family="DejaVu Sans" font-size="10" font-weight="400" text-anchor="middle" id="text_1">0.0</text></g><g id="xtick_2"><use x="116.089" xlink:href="#mb227ef1aed" y="307.584" stroke="#000" stroke-width=".8" id="line2d_2"/><text x="116.089" y="322.182" font-family="DejaVu Sans" font-size="10" font-weight="400" text-anchor="middle" id="text_2">0.1</text></g><g id="xtick_3"><use x="158.388" xlink:href="#mb227ef1aed" y="307.584" stroke="#000" stroke-width=".8" id="line2d_3"/><text x="158.388" y="322.182" font-family="DejaVu Sans" font-size="10" font-weight="400" text-anchor="middle" id="text_3">0.2</text></g><g id="xtick_4"><use x="200.687" xlink:href="#mb227ef1aed" y="307.584" stroke="#000" stroke-width=".8" id="line2d_4"/><text x="200.687" y="322.182" font-family="DejaVu Sans" font-size="10" font-weight="400" text-anchor="middle" id="text_4">0.3</text></g><g id="xtick_5"><use x="242.986" xlink:href="#mb227ef1aed" y="307.584" stroke="#000" stroke-width=".8" id="line2d_5"/><text x="242.986" y="322.182" font-family="DejaVu Sans" font-size="10" font-weight="400" text-anchor="middle" id="text_5">0.4</text></g><g id="xtick_6"><use x="285.285" xlink:href="#mb227ef1aed" y="307.584" stroke="#000" stroke-width=".8" id="line2d_6"/><text x="285.285" y="322.182" font-family="DejaVu Sans" font-size="10" font-weight="400" text-anchor="middle" id="text_6">0.5</text></g><g id="xtick_7"><use x="327.584" xlink:href="#mb227ef1aed" y="307.584" stroke="#000" stroke-width=".8" id="line2d_7"/><text x="327.584" y="322.182" font-family="DejaVu Sans" font-size="10" font-weight="400" text-anchor="middle" id="text_7">0.6</text></g><g id="xtick_8"><use x="369.883" xlink:href="#mb227ef1aed" y="307.584" stroke="#000" stroke-width=".8" id="line2d_8"/><text x="369.883" y="322.182" font-family="DejaVu Sans" font-size="10" font-weight="400" text-anchor="middle" id="text_8">0.7</text></g><g id="xtick_9"><use x="412.182" xlink:href="#mb227ef1aed" y="307.584" stroke="#000" stroke-width=".8" id="line2d_9"/><text x="412.182" y="322.182" font-family="DejaVu Sans" font-size="10" font-weight="400" text-anchor="middle" id="text_9">0.8</text></g><text x="236.16" y="335.861" font-family="DejaVu Sans" font-size="10" font-weight="400" text-anchor="middle" id="text_10">Probability</text></g><g id="matplotlib.axis_2"><g id="ytick_1"><g id="line2d_10"><defs><path d="M0 0h-3.5" id="mfc017bfe98" stroke="#000" stroke-width=".8"/></defs><use x="57.6" xlink:href="#mfc017bfe98" y="274.174" stroke="#000" stroke-width=".8"/></g><text x="50.6" y="277.973" font-family="DejaVu Sans" font-size="10" font-weight="400" text-anchor="end" id="text_11">100</text></g><g id="ytick_2"><use x="57.6" xlink:href="#mfc017bfe98" y="239.512" stroke="#000" stroke-width=".8" id="line2d_11"/><text x="50.6" y="243.311" font-family="DejaVu Sans" font-size="10" font-weight="400" text-anchor="end" id="text_12">200</text></g><g id="ytick_3"><use x="57.6" xlink:href="#mfc017bfe98" y="204.85" stroke="#000" stroke-width=".8" id="line2d_12"/><text x="50.6" y="208.649" font-family="DejaVu Sans" font-size="10" font-weight="400" text-anchor="end" id="text_13">300</text></g><g id="ytick_4"><use x="57.6" xlink:href="#mfc017bfe98" y="170.187" stroke="#000" stroke-width=".8" id="line2d_13"/><text x="50.6" y="173.986" font-family="DejaVu Sans" font-size="10" font-weight="400" text-anchor="end" id="text_14">400</text></g><g id="ytick_5"><use x="57.6" xlink:href="#mfc017bfe98" y="135.525" stroke="#000" stroke-width=".8" id="line2d_14"/><text x="50.6" y="139.324" font-family="DejaVu Sans" font-size="10" font-weight="400" text-anchor="end" id="text_15">500</text></g><g id="ytick_6"><use x="57.6" xlink:href="#mfc017bfe98" y="100.863" stroke="#000" stroke-width=".8" id="line2d_15"/><text x="50.6" y="104.662" font-family="DejaVu Sans" font-size="10" font-weight="400" text-anchor="end" id="text_16">600</text></g><g id="ytick_7"><use x="57.6" xlink:href="#mfc017bfe98" y="66.2" stroke="#000" stroke-width=".8" id="line2d_16"/><text x="50.6" y="70" font-family="DejaVu Sans" font-size="10" font-weight="400" text-anchor="end" id="text_17">700</text></g><text transform="rotate(-90 25.433 174.528)" x="25.433" y="174.528" font-family="DejaVu Sans" font-size="10" font-weight="400" text-anchor="middle" id="text_18">Average Bits Consumed Per Call</text></g><path clip-path="url(#p6cfacbad82)" d="M73.833 293.135l4.271-.753 4.272.792 4.272 1.719 4.272-.222 4.272-3.705 4.271 2.143 4.272-.286 4.272-2.045 4.272 4.71 4.271-1.11 4.272-1.173 4.272 1.376 4.272-.441 4.272.484 4.271-.176 4.272-.972 4.272-.285 4.272-.516 4.271 1.395 4.272-.522 4.272-1.46 4.272-.093 4.271 2.22 4.272-2.137 4.272 1.31 4.272-1.385 4.272-.329 4.271-.508 4.272-.463 4.272-.763 4.272-1.61 4.271 5.128 4.272-3.178 4.272.484 4.272-1.242 4.271-.551 4.272-1.037 4.272 2.238 4.272-1.74 4.272 2.475 4.271-1.776 4.272 1.44 4.272-1.619 4.272-1.342 4.271-.495 4.272.04 4.272-1.133 4.272-1.711 4.271 4.906 4.272-4.85 4.272.892 4.272 1.864 4.272 1.817 4.271-12.574m8.544 9.95l4.272-6.69 4.271 4.839 4.272-1.56 4.272-2.896 4.272.128 4.271-4.511m8.544 1.833l4.272 1.855 4.272-7.759 4.271 2.957 4.272-9.039M394.216 270.141l4.271-18.547" fill="none" stroke="#1f77b4" stroke-linecap="square" stroke-width="1.5" id="line2d_17"/><path clip-path="url(#p6cfacbad82)" d="M73.833 280.409l4.271-1.174 4.272 1.119 4.272-1.672 4.272 2.092 4.272.46 4.271-1.491 4.272.948 4.272-.38 4.272-.992 4.271 1.828 4.272 1.13 4.272-1.171 4.272-1.158 4.272-1.144 4.271-3.326 4.272-.112 4.272-1.608 4.272 1.344 4.271-.938 4.272-2.061 4.272 3.942 4.272-1.474 4.271 1.581 4.272-.22 4.272-2.656 4.272-4.145 4.272-.382 4.271 4.086 4.272-1.499 4.272-.999 4.272 1.495 4.271-4.107 4.272 4.53 4.272-6.07 4.272-2.658 4.271 2.97 4.272.318 4.272.422 4.272-4.144 4.272-2.359 4.271 5.324 4.272-2.649 4.272-.193 4.272 5.53 4.271-13.226 4.272-.471 4.272 3.506 4.272-1.384 4.271-.072 4.272 2.39 4.272-8.074 4.272.116 4.272-4.482 4.271-1.863 4.272-3.047 4.272 1.935 4.272-5.602 4.271 2.513 4.272-5.674 4.272 1.038 4.272-1.912 4.271-6.713 4.272 5.345m8.544-12.765l4.272-1.732m17.087.938" fill="none" stroke="#ff7f0e" stroke-linecap="square" stroke-width="1.5" id="line2d_18"/><path clip-path="url(#p6cfacbad82)" d="M146.453 53.568l4.272 28.072m34.174 111.45l4.272 15.04 4.271-.495m8.544 16.783l4.272-.504 4.271 1.785 4.272 2.563m8.544 16.17l4.271.994 4.272 7.19 4.272-3.273 4.272 3.15 4.272 1.142 4.271 6.441 4.272-7.11 4.272 6.59 4.272 4.71 4.271-.576 4.272 4.566 4.272-1.67 4.272 1.131" fill="none" stroke="#2ca02c" stroke-linecap="square" stroke-width="1.5" id="line2d_19"/><path d="M57.6 307.584V41.472" fill="none" stroke="#000" stroke-linecap="square" stroke-width=".8" id="patch_3"/><path d="M414.72 307.584V41.472" fill="none" stroke="#000" stroke-linecap="square" stroke-width=".8" id="patch_4"/><path d="M57.6 307.584h357.12" fill="none" stroke="#000" stroke-linecap="square" stroke-width=".8" id="patch_5"/><path d="M57.6 41.472h357.12" fill="none" stroke="#000" stroke-linecap="square" stroke-width=".8" id="patch_6"/><text x="236.16" y="35.472" font-family="DejaVu Sans" font-size="12" font-weight="400" text-anchor="middle" id="text_19">Avg. Bits Consumed</text><g id="legend_1"><path d="M291.172 93.506H407.72q2 0 2-2V48.472q0-2-2-2H291.172q-2 0-2 2v43.034q0 2 2 2z" fill="#fff" opacity=".8" stroke="#ccc" id="patch_7"/><path d="M293.172 54.57h20" fill="none" stroke="#1f77b4" stroke-linecap="square" stroke-width="1.5" id="line2d_20"/><text x="321.172" y="58.07" font-family="DejaVu Sans" font-size="10" font-weight="400" id="text_20">2014 Add. x+0.1</text><path d="M293.172 69.249h20" fill="none" stroke="#ff7f0e" stroke-linecap="square" stroke-width="1.5" id="line2d_22"/><text x="321.172" y="72.749" font-family="DejaVu Sans" font-size="10" font-weight="400" id="text_21">2016 Add. x+0.1</text><path d="M293.172 83.927h20" fill="none" stroke="#2ca02c" stroke-linecap="square" stroke-width="1.5" id="line2d_24"/><text x="321.172" y="87.427" font-family="DejaVu Sans" font-size="10" font-weight="400" id="text_22">2019 Add. x+0.1</text></g></g></g><defs><clipPath id="p6cfacbad82"><path d="M57.6 41.472h357.12v266.112H57.6z"/></clipPath></defs></svg>
